public/images/logos/duke-and-dexter.svg

<svg xmlns="http://www.w3.org/2000/svg" data-name="6f839bb7-3c3d-4dc4-a543-79c36e30bbe3" viewBox="0 0 840.88 50.26" fill="#FFFFFF">
  <path d="M368.3 20.1v10.06h-41.6V20.1h41.6"></path>
  <path d="M352.52 4.31v41.61h-10.06V4.31h10.06M22.8 0c7.25 0 13.27 2.51 17.39 7.25 3.8 4.35 5.86 10.53 5.86 17.39 0 15-9.13 24.63-23.25 24.63H-.01V0h22.8M11.22 38.51h10.64c8 0 12.9-5.31 12.9-13.87s-5-13.81-12.9-13.81H11.22v27.68M126.28 0v27.85c0 13.61-8.87 22.41-22.59 22.41-7 0-12.84-2.24-16.81-6.44-3.74-4-5.72-9.51-5.72-16V0h11.21v27.07c0 8 4 12.43 11.32 12.43s11.45-4.42 11.45-12.43V0h11.15m80 0L187.6 20.39l-.52.57.45.63 20.21 27.68h-14l-13.75-18.9-.7-.95-.79.88-3.51 3.86-.25.28v14.89h-11.2V0h11.21v19.19l1.66-1.86L191.99 0h14.32m73.18 0v10.83h-26.13v9.25h21.51v10h-21.51v8.46h26.15v10.79h-37.38V0h37.38M438.4.5c7.25 0 13.27 2.5 17.39 7.25 3.78 4.35 5.86 10.52 5.86 17.38 0 15-9.11 24.63-23.25 24.63h-22.79V.5h22.79M426.82 39h10.6c7.95 0 12.89-5.31 12.89-13.87s-4.94-13.84-12.89-13.84h-10.6V39M534.86.5v10.79h-26.15v9.26h21.52v10h-21.52V39h26.15v10.73h-37.39V.5h37.39m80 0l-16.18 24-.37.54.37.53 16.56 24.23h-13.58l-9.23-13.62-.78-1.18-.79 1.19-9.13 13.62h-13.68l16.56-24.2.38-.61-.36-.53L568.43.52h13.19l9.23 13.55.79 1.19.78-1.19 9.3-13.55h13.18m75 0v10.77h-16v38.44h-11.19V11.29h-15.94V.48h43.14m72.17 0v10.81h-26.15v9.26h21.53v10h-21.55V39h26.15v10.73H724.7V.5h37.38m60.52 0c5.86 0 10.7 1.81 13.8 5.23a18 18 0 0 1 4.47 12.52c0 7.46-3.48 13.35-9.51 16.12l-1 .47.68.95 9.88 14h-13.36l-9.43-13.3-.29-.41h-8.13v13.68h-11.15V.5h24m-12.85 25.58h12.14c4 0 8.18-2 8.18-7.7 0-5-3-7.85-8.18-7.85h-12.14v15.55"></path>
</svg>

<svg width="841" height="51" viewBox="0 0 841 51" fill="none" xmlns="http://www.w3.org/2000/svg">
<path d="M368.3 20.1V30.16H326.7V20.1H368.3Z" fill="white"/>
<path d="M352.52 4.31V45.92H342.46V4.31H352.52ZM22.8 0C30.05 0 36.07 2.51 40.19 7.25C43.99 11.6 46.05 17.78 46.05 24.64C46.05 39.64 36.92 49.27 22.8 49.27H-0.0100098V0H22.79M11.22 38.51H21.86C29.86 38.51 34.76 33.2 34.76 24.64C34.76 16.08 29.76 10.83 21.86 10.83H11.22V38.51ZM126.28 0V27.85C126.28 41.46 117.41 50.26 103.69 50.26C96.69 50.26 90.85 48.02 86.88 43.82C83.14 39.82 81.16 34.31 81.16 27.82V0H92.37V27.07C92.37 35.07 96.37 39.5 103.69 39.5C111.01 39.5 115.14 35.08 115.14 27.07V0H126.29M206.29 0L187.6 20.39L187.08 20.96L187.53 21.59L207.74 49.27H193.74L179.99 30.37L179.29 29.42L178.5 30.3L174.99 34.16L174.74 34.44V49.33H163.54V0H174.75V19.19L176.41 17.33L191.99 0H206.31M279.49 0V10.83H253.36V20.08H274.87V30.08H253.36V38.54H279.51V49.33H242.13V0H279.51M438.4 0.5C445.65 0.5 451.67 3 455.79 7.75C459.57 12.1 461.65 18.27 461.65 25.13C461.65 40.13 452.54 49.76 438.4 49.76H415.61V0.5H438.4ZM426.82 39H437.42C445.37 39 450.31 33.69 450.31 25.13C450.31 16.57 445.37 11.29 437.42 11.29H426.82V39ZM534.86 0.5V11.29H508.71V20.55H530.23V30.55H508.71V39H534.86V49.73H497.47V0.5H534.86ZM614.86 0.5L598.68 24.5L598.31 25.04L598.68 25.57L615.24 49.8H601.66L592.43 36.18L591.65 35L590.86 36.19L581.73 49.81H568.05L584.61 25.61L584.99 25L584.63 24.47L568.43 0.52H581.62L590.85 14.07L591.64 15.26L592.42 14.07L601.72 0.52H614.9M689.9 0.52V11.29H673.9V49.73H662.71V11.29H646.77V0.48H689.91M762.08 0.48V11.29H735.93V20.55H757.46V30.55H735.91V39H762.06V49.73H724.7V0.5H762.08M822.6 0.5C828.46 0.5 833.3 2.31 836.4 5.73C839.433 9.18006 841.032 13.6592 840.87 18.25C840.87 25.71 837.39 31.6 831.36 34.37L830.36 34.84L831.04 35.79L840.92 49.79H827.56L818.13 36.49L817.84 36.08H809.71V49.76H798.56V0.5H822.56M809.71 26.08H821.85C825.85 26.08 830.03 24.08 830.03 18.38C830.03 13.38 827.03 10.53 821.85 10.53H809.71V26.08Z" fill="white"/>
</svg>
